video-switch.svg

<svg fill="currentColor" viewBox="0 0 24 24"><path d="M13 15.5V13H7v2.5L3.5 12 7 8.5V11h6V8.5l3.5 3.5M18 9.5V6a1 1 0 0 0-1-1H3a1 1 0 0 0-1 1v12a1 1 0 0 0 1 1h14a1 1 0 0 0 1-1v-3.5l4 4v-13z"/></svg>

<svg  viewBox="0 0 24 24" fill="currentColor"><path  d="M13,15.5V13H7V15.5L3.5,12L7,8.5V11H13V8.5L16.5,12M18,9.5V6A1,1 0 0,0 17,5H3A1,1 0 0,0 2,6V18A1,1 0 0,0 3,19H17A1,1 0 0,0 18,18V14.5L22,18.5V5.5L18,9.5Z"/></svg>
